X:573
T: JETZT KOMMT DIE ZEIT
N: E0537B
O: Europa, Mitteleuropa, Deutschland, Hessen, Odenwald
R: Liebes - Lied
M: 4/4
L: 1/8
K: G
D2 | G2D2B2AG | F3GA2
dc | B2A2G2B2 | A4z2
AB | c2e2c2A2 | B2d2B2
GB | A2c2A2F2 | G4z2

@@@ Tune index: 4223
